_inc/systems/logos/scummvm.svg

<?xml version="1.0" encoding="utf-8"?>
<svg version="1.1" viewBox="0 0 264 68" xmlns="http://www.w3.org/2000/svg">
  <path d="M 262.539 24.974 L 255.901 24.948 L 255.615 24.948 L 255.541 25.225 L 253.303 33.327 L 253.29 33.376 L 253.29 33.428 L 253.257 45.126 L 248.513 45.126 L 249.616 32.297 C 249.674 31.607 249.44 31.534 249.096 32.132 L 230.646 64.2 C 230.304 64.801 229.458 65.229 228.772 65.156 L 223.453 64.589 C 222.766 64.516 222.048 63.913 221.855 63.249 L 218.023 50.064 L 220.031 50.064 L 220.408 50.064 L 220.408 49.685 L 220.408 35.918 L 225.591 35.918 L 228.863 48.076 C 229.042 48.742 229.459 48.793 229.792 48.188 L 247.046 16.606 L 254.079 16.606 L 254.349 16.606 L 254.437 16.347 L 257.608 6.812 L 262.857 7.269 C 263.544 7.33 264.056 7.942 263.995 8.631 L 262.539 24.974 Z M 259.569 58.373 L 256.351 58.373 L 256.117 58.373 L 256.015 58.583 L 255.392 59.848 L 252.894 60.179 L 252.591 60.218 L 252.569 60.526 L 252.083 67.437 L 247.894 67.002 C 247.209 66.93 246.695 66.308 246.754 65.618 L 248.448 45.88 L 253.631 45.88 L 254.007 45.88 L 254.008 45.503 L 254.04 33.479 L 256.184 25.705 L 262.47 25.73 L 259.569 58.373 Z M 257.453 67.993 L 252.832 67.515 L 253.299 60.885 L 255.692 60.57 L 255.89 60.543 L 255.979 60.363 L 256.589 59.129 L 259.503 59.129 L 258.814 66.872 C 258.752 67.559 258.139 68.065 257.453 67.993 Z M 211.249 26.75 C 211.054 26.087 210.82 26.104 210.724 26.789 L 207.922 46.984 L 202.755 46.984 L 201.018 46.038 L 200.935 45.991 L 200.841 45.99 L 197.62 45.971 L 201.524 19.68 L 206.654 19.68 L 206.929 19.68 L 207.012 19.418 L 208.493 14.749 L 219.892 14.749 L 225.384 35.165 L 220.03 35.165 L 219.651 35.165 L 219.651 35.54 L 219.651 49.31 L 217.799 49.31 L 211.249 26.75 Z M 204.494 62.598 L 196.517 61.899 C 195.829 61.839 195.349 61.231 195.451 60.546 L 196.651 52.477 L 206.99 53.711 L 205.915 61.463 C 205.821 62.147 205.182 62.657 204.494 62.598 Z M 200.743 46.745 L 202.48 47.691 L 202.565 47.738 L 202.66 47.738 L 207.819 47.738 L 207.093 52.962 L 196.761 51.731 L 197.507 46.723 L 200.743 46.745 Z M 205.496 1.505 L 215.386 2.502 C 216.074 2.572 216.782 3.175 216.961 3.843 L 219.692 13.993 L 208.222 13.993 L 207.946 13.993 L 207.862 14.256 L 206.381 18.926 L 201.639 18.926 L 204.063 2.623 C 204.163 1.939 204.809 1.436 205.496 1.505 Z M 252.029 7.482 C 252.361 6.874 253.195 6.426 253.882 6.487 L 256.837 6.744 L 253.808 15.851 L 247.458 15.851 L 252.029 7.482 Z" style="fill: rgb(255, 255, 255);"/>
  <path d="M 202.442 1.016 L 198.397 24.963 L 194.199 24.963 L 193.821 24.963 L 193.821 25.34 L 193.821 27.345 L 192.831 28.315 L 192.719 28.425 L 192.718 28.583 L 192.694 36.534 L 192.693 36.912 L 193.07 36.912 L 196.378 36.912 L 195.004 45.042 L 192.153 47.287 L 189.489 47.265 L 189.36 47.265 L 189.258 47.343 L 187.122 48.983 L 186.974 49.095 L 186.974 49.282 L 186.974 52.617 L 179.498 55.383 L 171.155 41.296 L 180.378 33.584 L 184.832 41.523 C 185.171 42.126 185.524 42.058 185.617 41.374 L 189.143 15.709 L 192.691 15.709 L 192.827 15.709 L 192.933 15.621 L 194.342 14.436 L 194.477 14.324 L 194.477 14.147 L 194.477 8.216 L 195.376 7.255 L 195.478 7.147 L 195.478 6.998 L 195.478 5.072 L 196.351 4.297 L 196.477 4.185 L 196.477 4.014 L 196.477 1.023 L 201.421 0.025 C 202.097 -0.113 202.556 0.335 202.442 1.016 Z M 193.472 28.742 L 194.462 27.771 L 194.575 27.66 L 194.575 27.501 L 194.575 25.717 L 198.27 25.717 L 196.508 36.157 L 193.451 36.157 L 193.472 28.742 Z M 192.347 60.797 C 192.233 61.479 191.584 62.143 190.906 62.27 L 185.551 63.285 C 184.875 63.412 184.029 63.031 183.676 62.437 L 179.891 56.041 L 187.483 53.233 L 187.728 53.142 L 187.728 52.879 L 187.728 49.468 L 189.613 48.022 L 192.278 48.043 L 192.411 48.044 L 192.515 47.963 L 194.82 46.147 L 192.347 60.797 Z M 153.576 9.276 L 164.149 7.085 C 164.822 6.945 165.653 7.324 165.992 7.926 L 168.209 11.88 L 165.899 11.88 L 165.707 11.88 L 165.592 12.035 L 164.927 12.944 L 161.38 12.944 L 161.002 12.944 L 161.002 13.322 L 161.002 17.965 L 157.34 17.965 L 152.984 10.611 C 152.633 10.016 152.898 9.415 153.576 9.276 Z M 161.381 18.719 L 161.759 18.719 L 161.759 18.34 L 161.759 13.697 L 165.12 13.697 L 165.312 13.697 L 165.425 13.543 L 166.089 12.633 L 168.633 12.633 L 180.006 32.915 L 170.769 40.637 L 157.787 18.719 L 161.381 18.719 Z M 190.838 3.372 C 190.932 2.688 191.563 2.016 192.238 1.878 L 195.724 1.174 L 195.724 3.844 L 194.85 4.618 L 194.723 4.732 L 194.723 4.902 L 194.723 6.847 L 193.824 7.808 L 193.723 7.918 L 193.723 8.067 L 193.723 13.971 L 192.553 14.953 L 189.245 14.953 L 190.838 3.372 Z" style="fill: rgb(255, 255, 255);"/>
  <path d="M 28.279 42.866 C 29.05 44.393 29.437 46.21 29.437 48.319 C 29.437 50.354 29.013 52.115 28.166 53.603 C 27.319 55.09 26.217 56.314 24.86 57.275 C 23.505 58.236 21.969 58.951 20.256 59.423 C 18.541 59.894 16.817 60.129 15.086 60.129 C 11.62 60.129 8.711 59.489 6.355 58.208 C 4.002 56.929 1.883 54.988 0 52.388 L 4.014 47.31 C 4.385 46.841 5.017 46.823 5.414 47.268 C 5.414 47.268 5.876 47.784 6.666 48.405 C 7.459 49.028 8.315 49.573 9.238 50.044 C 10.159 50.515 11.102 50.901 12.063 51.204 C 13.024 51.503 13.917 51.656 14.746 51.656 C 15.574 51.656 16.207 51.503 16.639 51.204 C 17.072 50.901 17.29 50.337 17.29 49.508 C 17.29 48.791 16.902 48.114 16.131 47.473 C 15.359 46.834 14.398 46.164 13.25 45.467 C 12.1 44.773 10.856 44.018 9.519 43.207 C 8.183 42.398 6.941 41.446 5.792 40.353 C 4.642 39.262 3.682 38.009 2.909 36.596 C 2.137 35.183 1.751 33.554 1.751 31.709 C 1.751 29.899 2.091 28.318 2.768 26.962 C 3.446 25.604 4.359 24.466 5.509 23.542 C 6.656 22.621 7.985 21.923 9.493 21.451 C 10.998 20.982 12.599 20.746 14.295 20.746 C 17.308 20.746 20.01 21.302 22.403 22.412 C 24.795 23.523 27.064 25.172 29.212 27.356 L 25.961 32.374 C 25.636 32.878 24.999 32.968 24.546 32.574 C 24.546 32.574 23.73 31.866 22.826 31.281 C 21.924 30.698 21.037 30.2 20.171 29.785 C 19.304 29.37 18.493 29.06 17.741 28.853 C 16.987 28.645 16.329 28.541 15.763 28.541 C 15.086 28.541 14.586 28.711 14.267 29.051 C 13.944 29.39 13.786 29.823 13.786 30.35 C 13.786 31.028 14.171 31.658 14.944 32.242 C 15.715 32.827 16.685 33.43 17.854 34.052 C 19.021 34.674 20.274 35.37 21.612 36.141 C 22.948 36.914 24.201 37.847 25.369 38.939 C 26.536 40.033 27.506 41.342 28.279 42.866 Z M 42.092 40.679 C 42.522 40.211 43.01 39.855 43.555 39.61 C 44.098 39.368 44.633 39.244 45.16 39.244 C 46.736 39.244 47.907 39.64 48.678 40.427 C 49.446 41.216 49.795 42.02 49.795 42.02 C 50.032 42.568 50.698 42.898 51.276 42.755 L 58.106 41.046 C 57.393 37.933 55.947 35.417 53.771 33.503 C 51.595 31.589 48.667 30.632 44.99 30.632 C 42.738 30.632 40.731 30.98 38.966 31.674 C 37.202 32.369 35.721 33.362 34.52 34.658 C 33.319 35.953 32.409 37.511 31.79 39.33 C 31.17 41.152 30.861 43.186 30.861 45.437 C 30.861 47.39 31.142 49.248 31.705 51.012 C 32.268 52.777 33.141 54.324 34.324 55.656 C 35.504 56.988 36.995 58.049 38.798 58.837 C 40.599 59.624 42.757 60.018 45.27 60.018 C 46.696 60.018 48.085 59.8 49.436 59.371 C 50.787 58.94 52.026 58.282 53.152 57.4 C 54.278 56.518 55.262 55.403 56.107 54.05 C 56.951 52.699 57.677 50.305 57.677 50.305 C 57.851 49.733 57.523 49.132 56.951 48.966 L 50.337 47.069 C 50.224 47.67 49.981 48.213 49.606 48.701 C 49.23 49.189 48.808 49.611 48.339 49.967 C 47.869 50.325 47.391 50.608 46.903 50.814 C 46.415 51.02 45.965 51.122 45.552 51.122 C 44.089 51.122 42.897 50.559 41.979 49.434 C 41.058 48.306 40.599 46.827 40.599 44.985 C 40.599 44.011 40.739 43.166 41.021 42.451 C 41.303 41.742 41.659 41.151 42.092 40.679 Z M 88.538 45.45 C 88.443 43.115 88.35 40.736 88.255 38.308 C 88.162 35.881 88.034 31.578 88.034 31.578 C 88.016 30.98 87.512 30.5 86.915 30.513 L 77.67 30.714 C 77.783 32.522 77.887 34.084 77.981 35.401 C 78.074 36.719 78.151 37.98 78.206 39.183 C 78.263 40.388 78.301 41.631 78.321 42.909 C 78.337 44.19 78.349 45.696 78.349 47.427 C 78.349 48.745 77.916 49.788 77.05 50.559 C 76.185 51.332 75.151 51.716 73.946 51.716 C 72.667 51.716 71.706 51.33 71.066 50.559 C 70.425 49.788 70.107 48.857 70.107 47.766 C 70.107 45.812 70.196 43.98 70.388 42.064 C 70.576 40.183 70.764 38.452 70.954 36.869 C 71.18 35.062 71.565 32.75 71.565 32.75 C 71.662 32.159 71.255 31.679 70.657 31.687 L 61.017 31.788 C 60.752 33.67 60.527 35.552 60.339 37.434 C 60.151 39.053 59.991 40.766 59.86 42.572 C 59.727 44.379 59.663 45.997 59.663 47.427 C 59.663 49.46 59.908 51.291 60.397 52.921 C 60.885 54.55 61.639 55.936 62.655 57.076 C 63.67 58.215 64.979 59.094 66.578 59.711 C 68.178 60.326 70.088 60.637 72.309 60.637 C 72.948 60.637 73.606 60.551 74.285 60.381 C 74.961 60.212 75.61 59.977 76.233 59.676 C 76.852 59.374 77.425 59.027 77.954 58.632 C 78.19 58.455 78.606 57.892 78.947 58.01 C 79.389 58.166 79.14 59.16 79.14 59.49 C 79.14 60.088 79.628 60.567 80.226 60.554 L 89.075 60.356 C 89 57.588 88.916 54.997 88.821 52.578 C 88.724 50.16 88.63 47.784 88.538 45.45 Z M 128.137 35.951 C 127.274 34.62 126.092 33.579 124.592 32.827 C 123.09 32.077 121.139 31.702 118.737 31.702 C 116.935 31.702 115.388 32.095 114.092 32.883 C 113.748 33.093 113.41 33.317 113.087 33.558 C 112.795 33.776 112.512 34.007 112.249 34.256 C 112.053 34.441 111.883 34.725 111.597 34.776 C 111.525 34.788 111.449 34.807 111.372 34.799 C 111.112 34.775 111.039 34.6 110.905 34.405 C 110.53 33.86 110.045 33.402 109.505 33.024 C 108.565 32.369 107.385 32.038 105.959 32.038 C 105.246 32.038 104.57 32.152 103.932 32.377 C 103.292 32.601 102.722 32.894 102.216 33.249 C 101.787 33.55 101.418 33.914 101.009 34.237 C 100.808 34.396 100.729 34.614 100.446 34.597 C 100.157 34.578 100.197 34.206 100.178 34.008 C 100.152 33.771 100.126 33.535 100.104 33.299 C 100.086 33.126 100.067 32.953 100.049 32.781 C 99.988 32.187 99.451 31.713 98.853 31.727 L 90.761 31.927 C 90.874 34.216 90.959 36.411 91.016 38.514 C 91.072 40.615 91.109 42.744 91.128 44.901 C 91.146 47.06 91.146 49.339 91.128 51.741 C 91.109 54.142 91.102 58.592 91.102 58.592 C 91.101 59.189 91.587 59.669 92.183 59.661 L 100.036 59.527 C 100.631 59.517 101.129 59.019 101.141 58.424 L 101.458 42.959 C 101.458 42.432 101.589 41.899 101.851 41.355 C 102.112 40.81 102.732 40.538 103.708 40.538 C 104.159 40.538 104.516 40.705 104.779 41.045 C 105.039 41.383 105.256 41.833 105.425 42.396 C 105.595 42.958 105.707 43.606 105.764 44.337 C 105.819 45.068 105.847 45.828 105.847 46.616 C 105.847 48.568 105.847 50.162 105.847 51.401 C 105.847 52.639 105.837 53.718 105.819 54.637 C 105.8 55.56 105.772 56.422 105.735 57.227 C 105.697 58.035 105.663 58.93 105.663 58.93 C 105.642 59.526 106.109 60.024 106.705 60.04 L 115.924 60.239 C 115.848 59.677 115.783 58.983 115.727 58.157 C 115.671 57.332 115.632 56.487 115.614 55.623 C 115.596 54.762 115.577 53.935 115.558 53.147 C 115.538 52.359 115.53 51.72 115.53 51.232 C 115.53 47.631 115.679 44.949 115.981 43.183 C 116.281 41.419 117.068 40.536 118.344 40.536 C 119.132 40.536 119.742 40.865 120.175 41.523 C 120.605 42.179 120.822 43.277 120.822 44.815 C 120.822 46.28 120.643 48.147 120.286 50.417 C 119.93 52.688 118.81 57.606 118.81 57.606 C 118.678 58.187 119.053 58.722 119.646 58.8 L 128.928 59.959 C 129.339 57.633 129.687 55.382 129.969 53.203 C 130.25 51.029 130.392 48.907 130.392 46.841 C 130.392 44.628 130.232 42.592 129.914 40.733 C 129.593 38.879 129 37.283 128.137 35.951 Z M 171.001 40.736 C 170.682 38.879 170.092 37.283 169.23 35.951 C 168.367 34.62 167.183 33.579 165.682 32.827 C 164.18 32.077 162.231 31.702 159.829 31.702 C 158.029 31.702 156.481 32.095 155.184 32.883 C 154.853 33.086 154.53 33.299 154.216 33.528 C 153.922 33.745 153.639 33.975 153.373 34.225 C 153.154 34.43 152.87 34.925 152.52 34.824 C 152.273 34.751 152.055 34.474 151.909 34.273 C 151.553 33.784 151.093 33.369 150.598 33.026 C 149.659 32.369 148.476 32.038 147.052 32.038 C 146.336 32.038 145.663 32.152 145.025 32.377 C 144.387 32.602 143.814 32.894 143.309 33.249 C 142.801 33.607 142.388 33.982 142.07 34.375 C 142.019 34.439 141.968 34.501 141.913 34.559 C 141.832 34.643 141.706 34.757 141.579 34.725 C 141.436 34.692 141.351 34.477 141.32 34.351 C 141.262 34.129 141.256 33.894 141.234 33.666 C 141.204 33.371 141.175 33.075 141.142 32.781 C 141.08 32.187 140.542 31.713 139.948 31.727 L 131.856 31.927 C 131.967 34.216 132.053 36.411 132.109 38.514 C 132.165 40.615 132.202 42.744 132.222 44.901 C 132.24 47.06 132.24 49.341 132.222 51.742 C 132.203 54.144 132.195 58.592 132.195 58.592 C 132.193 59.189 132.68 59.671 133.278 59.661 L 141.132 59.528 C 141.727 59.517 142.224 59.022 142.237 58.424 L 142.552 42.961 C 142.552 42.434 142.685 41.901 142.947 41.356 C 143.208 40.811 143.828 40.539 144.804 40.539 C 145.254 40.539 145.611 40.706 145.874 41.045 C 146.134 41.384 146.352 41.833 146.521 42.396 C 146.69 42.959 146.8 43.608 146.858 44.338 C 146.915 45.07 146.943 45.83 146.943 46.618 C 146.943 48.571 146.943 50.164 146.943 51.403 C 146.943 52.639 146.933 53.719 146.915 54.638 C 146.896 55.56 146.867 56.422 146.83 57.229 C 146.793 58.037 146.758 58.93 146.758 58.93 C 146.735 59.527 147.203 60.025 147.801 60.04 C 147.807 60.04 147.813 60.04 147.818 60.04 C 148.117 60.046 148.412 60.053 148.713 60.06 C 149.355 60.072 149.998 60.088 150.642 60.102 C 151.428 60.118 152.215 60.135 153.003 60.153 C 153.745 60.169 154.488 60.184 155.229 60.202 C 155.685 60.212 156.218 60.312 156.666 60.208 C 157.044 60.121 156.96 59.821 156.949 59.519 C 156.938 59.06 156.854 58.615 156.82 58.158 C 156.766 57.333 156.727 56.488 156.707 55.625 C 156.689 54.764 156.671 53.936 156.651 53.148 C 156.632 52.36 156.622 51.723 156.622 51.234 C 156.622 47.632 156.773 44.95 157.072 43.184 C 157.373 41.421 158.16 40.538 159.437 40.538 C 160.225 40.538 160.835 40.868 161.268 41.523 C 161.698 42.179 161.916 43.278 161.916 44.817 C 161.916 46.28 161.739 48.148 161.38 50.418 C 161.023 52.691 159.904 57.606 159.904 57.606 C 159.771 58.188 160.146 58.725 160.739 58.8 C 160.994 58.83 161.245 58.863 161.496 58.894 C 162.766 59.054 164.033 59.212 165.302 59.371 C 166.107 59.471 166.913 59.557 167.719 59.651 C 168.208 59.707 168.691 59.815 169.179 59.872 C 169.48 59.904 169.864 60.058 170.107 59.789 C 170.339 59.53 170.325 59.057 170.379 58.739 C 170.461 58.256 170.51 57.771 170.55 57.285 C 170.609 56.541 170.705 55.811 170.809 55.071 C 170.899 54.45 170.98 53.828 171.061 53.205 C 171.342 51.029 171.483 48.908 171.483 46.844 C 171.481 44.629 171.321 42.593 171.001 40.736 Z" style="fill: rgb(255, 255, 255);"/>
</svg>

<svg xmlns="http://www.w3.org/2000/svg" viewBox="0 0 264 68"><path d="m262.54 24.97-6.64-.02h-.28l-.08.28-2.24 8.1-.01.05v.05l-.03 11.7h-4.75l1.1-12.83c.06-.7-.17-.77-.51-.17L230.65 64.2a2.1 2.1 0 0 1-1.88.96l-5.32-.57a2 2 0 0 1-1.6-1.34l-3.83-13.19h2.39V35.92h5.18l3.27 12.16c.18.66.6.71.93.1l17.26-31.57h7.3l.09-.26 3.17-9.54 5.25.46c.68.06 1.2.67 1.13 1.36zm-2.97 33.4h-3.45l-.1.21-.63 1.27-2.5.33-.3.04-.02.3-.49 6.92-4.19-.44c-.68-.07-1.2-.7-1.14-1.38l1.7-19.74H254v-.38l.03-12.02 2.14-7.77 6.29.02zM257.45 68l-4.62-.47.47-6.63 2.4-.32.19-.03.09-.18.6-1.23h2.92l-.69 7.74c-.06.69-.67 1.2-1.36 1.12m-46.2-41.24c-.2-.66-.43-.65-.53.04l-2.8 20.2h-5.16l-1.74-.95-.09-.05h-.09l-3.22-.02 3.9-26.29h5.41l.08-.26 1.48-4.67h11.4l5.5 20.42h-5.74V49.3h-1.85zm-6.76 35.85-7.97-.7a1.17 1.17 0 0 1-1.07-1.35l1.2-8.07L207 53.7l-1.08 7.75c-.09.69-.73 1.2-1.42 1.14m-3.75-15.86 1.74.95.09.05h5.25l-.73 5.22-10.33-1.23.75-5zm4.76-45.23 9.89 1c.68.06 1.4.67 1.57 1.33L219.7 14h-11.74l-.09.27-1.48 4.67h-4.74l2.42-16.3c.1-.7.75-1.2 1.44-1.12m46.53 5.97a2.1 2.1 0 0 1 1.85-1l2.96.26-3.03 9.11h-6.35zm-49.6-6.47-4.04 23.94h-4.58v2.38l-.99.98-.11.1v.16l-.03 7.95v.38h3.68L195 45.04l-2.85 2.25-2.66-.02h-.13l-.1.07-2.14 1.64-.15.12v3.52l-7.47 2.76-8.34-14.08 9.22-7.72 4.45 7.94c.34.6.7.54.79-.15l3.52-25.66h3.69l.1-.09 1.41-1.18.14-.12v-6.1l.9-.97.1-.1V5.07l.87-.77.13-.12V1.02l4.94-1c.68-.13 1.14.32 1.02 1m-8.97 27.72 1-.97.1-.11v-1.94h3.7l-1.76 10.44h-3.06zm-1.12 32.06a1.9 1.9 0 0 1-1.44 1.47l-5.36 1.01a1.9 1.9 0 0 1-1.87-.84l-3.79-6.4 7.6-2.8.24-.1v-3.67l1.88-1.45 2.67.02h.13l.1-.08 2.31-1.81zM153.58 9.28l10.57-2.2c.67-.13 1.5.24 1.84.85l2.22 3.95h-2.51l-.1.15-.67.91H161v5.02h-3.66l-4.36-7.35c-.35-.6-.08-1.2.6-1.33m7.8 9.44h.38V13.7h3.56l.1-.16.67-.9h2.54l11.38 20.27-9.24 7.73-12.98-21.92zm29.46-15.35a1.9 1.9 0 0 1 1.4-1.5l3.48-.7v2.67l-.87.78-.13.11v2.12l-.9.96-.1.1v6.06l-1.17.98h-3.3z" style="fill:#fff"/><path d="M28.28 42.87a12 12 0 0 1 1.16 5.45 10.5 10.5 0 0 1-4.58 8.95q-2.05 1.45-4.6 2.15-2.58.7-5.17.7-5.2 0-8.73-1.91A19 19 0 0 1 0 52.39l4.01-5.08a.9.9 0 0 1 1.4-.04s.47.51 1.26 1.13q1.18.94 2.57 1.64 1.38.71 2.82 1.16 1.44.46 2.69.46 1.24 0 1.89-.46.65-.44.65-1.7 0-1.06-1.16-2.03-1.16-.95-2.88-2L9.52 43.2a22 22 0 0 1-3.73-2.86 15 15 0 0 1-2.88-3.75 10 10 0 0 1-1.16-4.9q0-2.7 1.02-4.74t2.74-3.42a12 12 0 0 1 3.98-2.09q2.25-.7 4.8-.7 4.53 0 8.11 1.66a24 24 0 0 1 6.81 4.95l-3.25 5.01c-.32.5-.96.6-1.41.2 0 0-.82-.7-1.72-1.29q-1.36-.87-2.66-1.5-1.3-.61-2.43-.93a8 8 0 0 0-1.98-.3q-1 0-1.5.5a1.8 1.8 0 0 0-.47 1.3q0 1.01 1.15 1.9a22 22 0 0 0 2.91 1.8q1.75.93 3.76 2.1a21 21 0 0 1 3.76 2.79q1.76 1.64 2.9 3.93m13.81-2.2q.65-.7 1.46-1.06a4 4 0 0 1 1.61-.37q2.37 0 3.52 1.19c.77.79 1.12 1.59 1.12 1.59.23.55.9.88 1.48.73l6.83-1.7a14 14 0 0 0-4.34-7.55Q50.5 30.63 45 30.63q-3.38 0-6.02 1.04a12 12 0 0 0-4.45 2.99 13 13 0 0 0-2.73 4.67 19 19 0 0 0-.93 6.1q0 2.94.84 5.58a13 13 0 0 0 2.62 4.65 13 13 0 0 0 4.48 3.18 16 16 0 0 0 6.47 1.18q2.14 0 4.17-.65a12 12 0 0 0 3.71-1.97q1.69-1.32 2.96-3.35a20 20 0 0 0 1.57-3.74 1.07 1.07 0 0 0-.73-1.34l-6.61-1.9q-.18.9-.73 1.63a7 7 0 0 1-2.7 2.11q-.74.31-1.36.31a4.4 4.4 0 0 1-3.57-1.69A6.8 6.8 0 0 1 40.6 45q0-1.46.42-2.54.42-1.06 1.07-1.77m46.45 4.78-.29-7.14c-.09-2.43-.22-6.73-.22-6.73a1.1 1.1 0 0 0-1.11-1.07l-9.25.2.31 4.7a154 154 0 0 1 .34 7.5q.03 1.92.03 4.52 0 1.97-1.3 3.13a4.5 4.5 0 0 1-3.1 1.16q-1.92 0-2.88-1.16a4.2 4.2 0 0 1-.96-2.8c0-1.95.09-3.78.28-5.7q.28-2.81.56-5.2c.23-1.8.61-4.11.61-4.11a.88.88 0 0 0-.9-1.06l-9.64.1a141 141 0 0 0-.68 5.64 120 120 0 0 0-.48 5.14 67 67 0 0 0-.2 4.86q0 3.04.74 5.5a11 11 0 0 0 2.26 4.15 10 10 0 0 0 3.92 2.63q2.4.93 5.73.93.96 0 1.97-.26a10 10 0 0 0 3.67-1.75c.24-.18.66-.74 1-.62.44.16.19 1.15.19 1.48 0 .6.49 1.08 1.09 1.06l8.84-.2a643 643 0 0 0-.25-7.77zm39.6-9.5a9 9 0 0 0-3.55-3.12q-2.25-1.13-5.85-1.13a8.8 8.8 0 0 0-5.65 1.86q-.45.33-.84.7c-.2.18-.37.47-.65.52q-.1.02-.23.02c-.26-.02-.33-.2-.47-.4q-.57-.81-1.4-1.38a6 6 0 0 0-3.54-.98q-1.07 0-2.03.34-.95.33-1.71.87c-.43.3-.8.66-1.21.99-.2.16-.28.37-.56.36-.3-.02-.25-.4-.27-.6l-.08-.7-.05-.52a1.2 1.2 0 0 0-1.2-1.05l-8.09.2a297 297 0 0 1 .37 12.97q.03 3.24 0 6.84l-.03 6.85c0 .6.49 1.08 1.08 1.07l7.86-.13c.6-.01 1.09-.51 1.1-1.1l.32-15.47q0-.8.4-1.6.38-.82 1.85-.82.67 0 1.07.5.4.52.64 1.36.26.84.34 1.94t.09 2.28v4.78a167 167 0 0 1-.11 5.83l-.08 1.7c-.02.6.45 1.1 1.05 1.11l9.21.2q-.1-.84-.2-2.08-.08-1.24-.1-2.54l-.09-4.39q0-5.4.45-8.05.45-2.64 2.36-2.64 1.2 0 1.83.98.66.99.65 3.3 0 2.2-.53 5.6c-.36 2.27-1.48 7.19-1.48 7.19a.97.97 0 0 0 .84 1.19l9.28 1.16q.61-3.5 1.04-6.76.42-3.26.42-6.36 0-3.32-.48-6.1a13 13 0 0 0-1.77-4.79M171 40.74q-.47-2.8-1.77-4.79a9 9 0 0 0-3.55-3.12q-2.25-1.13-5.85-1.13a8.8 8.8 0 0 0-5.61 1.83q-.45.32-.85.7c-.22.2-.5.7-.85.6-.25-.08-.47-.36-.61-.56q-.56-.73-1.31-1.24a6 6 0 0 0-3.55-1q-1.07 0-2.03.35a7 7 0 0 0-3.1 2.18c-.09.08-.21.2-.34.16-.14-.03-.23-.24-.26-.37-.06-.22-.06-.46-.09-.68q-.04-.45-.09-.89a1.2 1.2 0 0 0-1.2-1.05l-8.08.2a303 303 0 0 1 .36 12.97q.03 3.24 0 6.84l-.03 6.85c0 .6.49 1.08 1.09 1.07l7.85-.13c.6-.01 1.1-.5 1.1-1.1l.32-15.47q0-.8.4-1.6.4-.82 1.85-.82.68 0 1.07.5.4.52.65 1.36t.34 1.94q.08 1.1.08 2.28v4.78a167 167 0 0 1-.18 7.53c-.02.6.44 1.1 1.04 1.11h.02l.9.02 1.92.04 2.36.05 2.23.05c.46.01.99.11 1.44 0 .37-.08.29-.38.28-.68-.01-.46-.1-.9-.13-1.36a60 60 0 0 1-.11-2.53l-.09-4.4q0-5.4.45-8.05.45-2.64 2.37-2.64 1.18 0 1.83.98.65.99.65 3.3 0 2.2-.54 5.6c-.36 2.27-1.48 7.19-1.48 7.19a.97.97 0 0 0 .84 1.19l.76.1 3.8.47 2.42.28 1.46.22c.3.03.68.19.93-.08.23-.26.21-.73.27-1.05a17 17 0 0 0 .17-1.46q.1-1.1.26-2.2l.25-1.87q.42-3.27.42-6.37 0-3.32-.48-6.1" style="fill:#fff"/></svg>
